svg/file/folder_star_line.svg

<?xml version="1.0" encoding="UTF-8"?>
<svg width="24px" height="24px" viewBox="0 0 24 24" version="1.1" xmlns="http://www.w3.org/2000/svg" xmlns:xlink="http://www.w3.org/1999/xlink">
    <title>folder_star_line</title>
    <g id="页面-1" stroke="none" stroke-width="1" fill="none" fill-rule="evenodd">
        <g id="File" transform="translate(-144.000000, -384.000000)" fill-rule="nonzero">
            <g id="folder_star_line" transform="translate(144.000000, 384.000000)">
                 <path d="M24,0 L24,24 L0,24 L0,0 L24,0 Z M12.5934901,23.257841 L12.5819402,23.2595131 L12.5108777,23.2950439 L12.4918791,23.2987469 L12.4918791,23.2987469 L12.4767152,23.2950439 L12.4056548,23.2595131 C12.3958229,23.2563662 12.3870493,23.2590235 12.3821421,23.2649074 L12.3780323,23.275831 L12.360941,23.7031097 L12.3658947,23.7234994 L12.3769048,23.7357139 L12.4804777,23.8096931 L12.4953491,23.8136134 L12.4953491,23.8136134 L12.5071152,23.8096931 L12.6106902,23.7357139 L12.6232938,23.7196733 L12.6232938,23.7196733 L12.6266527,23.7031097 L12.609561,23.275831 C12.6075724,23.2657013 12.6010112,23.2592993 12.5934901,23.257841 L12.5934901,23.257841 Z M12.8583906,23.1452862 L12.8445485,23.1473072 L12.6598443,23.2396597 L12.6498822,23.2499052 L12.6498822,23.2499052 L12.6471943,23.2611114 L12.6650943,23.6906389 L12.6699349,23.7034178 L12.6699349,23.7034178 L12.678386,23.7104931 L12.8793402,23.8032389 C12.8914285,23.8068999 12.9022333,23.8029875 12.9078286,23.7952264 L12.9118235,23.7811639 L12.8776777,23.1665331 C12.8752882,23.1545897 12.8674102,23.1470016 12.8583906,23.1452862 L12.8583906,23.1452862 Z M12.1430473,23.1473072 C12.1332178,23.1423925 12.1221763,23.1452606 12.1156365,23.1525954 L12.1099173,23.1665331 L12.0757714,23.7811639 C12.0751323,23.7926639 12.0828099,23.8018602 12.0926481,23.8045676 L12.108256,23.8032389 L12.3092106,23.7104931 L12.3186497,23.7024347 L12.3186497,23.7024347 L12.3225043,23.6906389 L12.340401,23.2611114 L12.337245,23.2485176 L12.337245,23.2485176 L12.3277531,23.2396597 L12.1430473,23.1473072 Z" id="MingCute" fill-rule="nonzero"></path>
                <path d="M9.51938,3 C10.066148,3 10.5863318,3.2237058 10.9615564,3.61430643 L11.0811,3.75061 L12.4806,5.5 L20,5.5 C21.0543909,5.5 21.9181678,6.31587733 21.9945144,7.35073759 L22,7.5 L22,19 C22,20.0543909 21.18415,20.9181678 20.1492661,20.9945144 L20,21 L4,21 C2.94563773,21 2.08183483,20.18415 2.00548573,19.1492661 L2,19 L2,5 C2,3.94563773 2.81587733,3.08183483 3.85073759,3.00548573 L4,3 L9.51938,3 Z M9.51938,5 L4,5 L4,19 L20,19 L20,7.5 L12.4806,7.5 C11.93385,7.5 11.413668,7.2762942 11.0384436,6.88569357 L10.9189,6.74939 L9.51938,5 Z M11.6544,10.1987 C11.79327,9.960263 12.117144,9.9364193 12.2930148,10.1271689 L12.3457,10.1987 L13.2401,11.7343 L14.9769,12.1104 C15.2492636,12.1694 15.3717926,12.4755074 15.238326,12.7024263 L15.1905,12.7678 L14.0065,14.093 L14.1855,15.861 C14.213825,16.1405833 13.9560354,16.3529444 13.6967403,16.2911159 L13.6262,16.2673 L12.0001,15.5507 L10.3739,16.2673 C10.1166833,16.3806917 9.83511542,16.2010785 9.81376682,15.9354278 L9.81461,15.861 L9.99362,14.093 L8.80957,12.7678 C8.62387909,12.5599818 8.70473364,12.2403455 8.94607804,12.1351869 L9.02319,12.1104 L10.76,11.7343 L11.6544,10.1987 Z" id="形状" fill="#09244B"></path>
            </g>
        </g>
    </g>
</svg>

<svg xmlns="http://www.w3.org/2000/svg" width="24" height="24"><g fill="none" fill-rule="nonzero"><path d="M24 0v24H0V0h24ZM12.593 23.258l-.011.002-.071.035-.02.004-.014-.004-.071-.035c-.01-.004-.019-.001-.024.005l-.004.01-.017.428.005.02.01.013.104.074.015.004.012-.004.104-.074.012-.016.004-.017-.017-.427c-.002-.01-.009-.017-.017-.018Zm.265-.113-.013.002-.185.093-.01.01-.003.011.018.43.005.012.008.007.201.093c.012.004.023 0 .029-.008l.004-.014-.034-.614c-.003-.012-.01-.02-.02-.022Zm-.715.002a.023.023 0 0 0-.027.006l-.006.014-.034.614c0 .012.007.02.017.024l.015-.002.201-.093.01-.008.004-.011.017-.43-.003-.012-.01-.01-.184-.092Z"/><path fill="#09244B" d="M9.52 3a2 2 0 0 1 1.442.614l.12.137L12.48 5.5H20a2 2 0 0 1 1.995 1.85L22 7.5V19a2 2 0 0 1-1.85 1.995L20 21H4a2 2 0 0 1-1.995-1.85L2 19V5a2 2 0 0 1 1.85-1.995L4 3h5.52Zm0 2H4v14h16V7.5h-7.52a2 2 0 0 1-1.442-.614l-.12-.137L9.52 5Zm2.134 5.199a.4.4 0 0 1 .639-.072l.053.072.894 1.535 1.737.376a.4.4 0 0 1 .261.592l-.047.066-1.184 1.325.178 1.768a.4.4 0 0 1-.488.43l-.07-.024L12 15.551l-1.626.716a.4.4 0 0 1-.56-.332v-.074l.18-1.768-1.184-1.325a.4.4 0 0 1 .136-.633l.077-.025 1.737-.376.894-1.535Z"/></g></svg>
